brandFactory_export/3.Masa/Balon_Deporte_3Masa.svg

<?xml version="1.0" encoding="UTF-8"?>
<svg width="24px" height="24px" viewBox="0 0 24 24" version="1.1" xmlns="http://www.w3.org/2000/svg" xmlns:xlink="http://www.w3.org/1999/xlink">
    <title>3.Masa/Balon_Deporte_3Masa</title>
    <g id="Symbols" stroke="none" stroke-width="1" fill="none" fill-rule="evenodd">
        <g id="3.Masa/Balon_Deporte_3Masa" fill="#5CB615" fill-rule="nonzero">
            <path d="M19.6571429,20.6756303 C18.3159664,18.594958 17.4722689,15.7042017 17.3210084,12.6151261 L23.6235294,12.6151261 C23.4151261,15.8184874 21.9226891,18.6621849 19.6571429,20.6756303 Z M12.7193277,23.610084 L12.7193277,12.6151261 L15.5865546,12.6151261 C15.7512605,16.0840336 16.7193277,19.3680672 18.2823529,21.7277311 C16.6621849,22.789916 14.7663866,23.4621849 12.7193277,23.610084 L12.7193277,23.610084 Z M12.7193277,0 C14.6991597,0.151260504 16.5478992,0.786554622 18.1411765,1.80504202 C16.6151261,4.20840336 15.7008403,7.43865546 15.5865546,10.8806723 L12.7193277,10.8806723 L12.7193277,0 L12.7193277,0 Z M23.6235294,10.8806723 L17.3210084,10.8806723 C17.4352941,7.85210084 18.2352941,4.93781513 19.5294118,2.83361345 C21.8420168,4.82016807 23.3680672,7.66722689 23.6235294,10.8806723 Z M10.9848739,10.8806723 L7.98991597,10.8806723 C7.87563025,7.4487395 6.97142857,4.22184874 5.45882353,1.82857143 C7.0789916,0.789915966 8.96134454,0.141176471 10.9848739,0.00336134454 L10.9848739,10.8806723 L10.9848739,10.8806723 Z M10.9848739,23.6235294 C8.8907563,23.4722689 6.9512605,22.789916 5.28403361,21.6941176 C6.86722689,19.3109244 7.81848739,16.097479 7.97983193,12.6151261 L10.9848739,12.6151261 L10.9848739,23.6235294 Z M0,12.6151261 L6.24537815,12.6151261 C6.09747899,15.6672269 5.25378151,18.5478992 3.92268908,20.6285714 C1.6907563,18.6184874 0.218487395,15.7848739 0,12.6151261 Z M4.07058824,2.86722689 C5.36470588,4.98151261 6.14117647,7.82857143 6.25546218,10.8806723 L0.0134453782,10.8806723 C0.265546218,7.67731092 1.78151261,4.84705882 4.07058824,2.86722689 Z" id="Balon_Deporte_3Masa"></path>
        </g>
    </g>
</svg>

<svg width="24" height="24" viewBox="0 0 24 24" xmlns="http://www.w3.org/2000/svg"><path d="M19.657 20.676c-1.341-2.081-2.185-4.972-2.336-8.06h6.303c-.209 3.202-1.701 6.046-3.967 8.06zM12.72 23.61V12.615h2.868c.164 3.469 1.132 6.753 2.695 9.113a11.65 11.65 0 01-5.563 1.882zm0-23.61c1.98.151 3.829.787 5.422 1.805-1.526 2.403-2.44 5.634-2.554 9.076h-2.868V0zm10.905 10.88H17.32c.114-3.028.914-5.942 2.208-8.046a11.816 11.816 0 014.095 8.047zm-12.64 0H7.99C7.876 7.45 6.97 4.223 5.459 1.83A11.68 11.68 0 0110.985.003v10.878zm0 12.744a11.897 11.897 0 01-5.7-1.93c1.583-2.383 2.534-5.597 2.696-9.079h3.005v11.009zM0 12.615h6.245c-.148 3.052-.991 5.933-2.322 8.014A11.879 11.879 0 010 12.615zm4.07-9.748c1.295 2.115 2.071 4.962 2.185 8.014H.013a11.789 11.789 0 014.058-8.014z" fill="#5CB615" fill-rule="nonzero"/></svg>
